sacjatek/assets/icons/sign-out-alt.svg

<svg xmlns="http://www.w3.org/2000/svg" width="512" height="512" data-name="Layer 1" viewBox="0 0 24 24"><path d="M11.476 15a1 1 0 0 0-1 1v3a3 3 0 0 1-3 3H5a3 3 0 0 1-3-3V5a3 3 0 0 1 3-3h2.476a3 3 0 0 1 3 3v3a1 1 0 0 0 2 0V5a5.006 5.006 0 0 0-5-5H5a5.006 5.006 0 0 0-5 5v14a5.006 5.006 0 0 0 5 5h2.476a5.006 5.006 0 0 0 5-5v-3a1 1 0 0 0-1-1Z"/><path d="m22.867 9.879-4.586-4.586a1 1 0 1 0-1.414 1.414l4.262 4.263L6 11a1 1 0 0 0 0 2l15.188-.031-4.323 4.324a1 1 0 1 0 1.414 1.414l4.586-4.586a3 3 0 0 0 .002-4.242Z"/></svg>

<?xml version="1.0" encoding="UTF-8"?>
<svg xmlns="http://www.w3.org/2000/svg" id="Layer_1" data-name="Layer 1" viewBox="0 0 24 24" width="512" height="512"><path d="M11.476,15a1,1,0,0,0-1,1v3a3,3,0,0,1-3,3H5a3,3,0,0,1-3-3V5A3,3,0,0,1,5,2H7.476a3,3,0,0,1,3,3V8a1,1,0,0,0,2,0V5a5.006,5.006,0,0,0-5-5H5A5.006,5.006,0,0,0,0,5V19a5.006,5.006,0,0,0,5,5H7.476a5.006,5.006,0,0,0,5-5V16A1,1,0,0,0,11.476,15Z"/><path d="M22.867,9.879,18.281,5.293a1,1,0,1,0-1.414,1.414l4.262,4.263L6,11a1,1,0,0,0,0,2H6l15.188-.031-4.323,4.324a1,1,0,1,0,1.414,1.414l4.586-4.586A3,3,0,0,0,22.867,9.879Z"/></svg>
